X: 4524
T: Boozehound, The
R: reel
M: 4/4
K: Eminor
EEeE fEgE|	aEgE fEeE|FFfF eFfE|aFgF fFeF|
EEeE fEgE|aEgE fEeE|ddAd fdAd|geed e4:|
gbge fgfd|eBfB gBfB|gbge fgfd|edBA GE3|
gbge fgfd|eBfB gBfB|bBgB afdf|geed e4:|

